X: 17639
T: Hole In The Hedge, The
R: jig
M: 6/8
K: Cmajor
|:C2E EDE|GEC E2D|C2E EDE|GEC D2E|
C2E EDE|GEG c3|cde dcA|1 GEC D2E:|2 GEC D2G||
|:c2e dcA|GEG GAB|c2e dcA|GEC D2G|
c2e dcA|GEG GAB|cBc AcA|1 GEC D2G:|2 GEC D2E||

